!!!!SEGMENT: pl-kozmzk--mzk-m-26--004_stefani-jozef-msza-swieta-credo.krn
!!!cenid: 18xx:2948
!!!COM: Stefani, Józef
!!!COM-rism: pe30024097
!!!CDT: 1800/04/16-1876/03/19
!!!CNT: Polish
!!!OTL: Msza Święta - Credo
!!!PDT:
!!!AGN: Sacred; Mass
!!!SMS-siglum: PL-KOZmzk
!!!SMS-shelfmark: mzk/m/26
!!!NIFC-rismID: 1001024881
!!!URL-scan: https://repozytorium.nifc.pl/islandora/object/pl-kozmzk%3A12693/datastream/PDF/view
!!!ONB-nifc: UWAGA: Części mszy: 1. Kyrie, 2. Gloria, 3. Graduale, 4. Credo, 5. Offertorium, 6. Sanctus, 7. Benedictus, 8. Agnus Dei, 9. Dona nobis
!!!SMS-variant:
!!!SMS-altvar:
!!!OMD:Allo moderato
**kern	**kern	**kern	**text	**dynam	**kern	**text	**dynam	**kern	**text	**dynam
*group2	*group2	*group1	*	*	*group1	*	*	*group1	*	*
*part4	*part4	*part3	*part3	*part3	*part2	*part2	*part2	*part1	*part1	*part1
*staff5	*staff4	*staff3	*staff3	*	*staff2	*staff2	*	*staff1	*staff1	*
*clefF4	*clefG2	*clefF4	*	*	*clefC4	*	*	*clefC4	*	*
*k[b-e-]	*k[b-e-]	*k[b-e-]	*	*	*k[b-e-]	*	*	*k[b-e-]	*	*
*M2/2	*M2/2	*M2/2	*	*	*M2/2	*	*	*M2/2	*	*
*met(c|)	*met(c|)	*met(c|)	*	*	*met(c|)	*	*	*met(c|)	*	*
*2\right	*2\right	*2\right	*	*	*2\right	*	*	*2\right	*	*
=1	=1	=1	=1	=1	=1	=1	=1	=1	=1	=1
*	*^	*	*	*	*	*	*	*	*	*
2A 2AA\	2cc 2f#/	2.d\	1r	.	.	1r	.	.	1r	.	.
4G 4GG/	4b- 4g/	.	.	.	.	.	.	.	.	.	.
4E- 4EE-/	4g 4e-/	4ryy	.	.	.	.	.	.	.	.	.
*	*v	*v	*	*	*	*	*	*	*	*	*
=2	=2	=2	=2	=2	=2	=2	=2	=2	=2	=2
4.C 4.CC/	4.a 4.e-/	2r	.	.	2r	.	.	2r	.	.
8C#X 8CC#X/	8g 8en/	.	.	.	.	.	.	.	.	.
4D 4DD/	4f#X 4d/	4r	.	.	4r	.	.	4r	.	.
4D\	4d/	4D\	.	.	4D/	Wie-	.	4D/	.	.
=3	=3	=3	=3	=3	=3	=3	=3	=3	=3	=3
8G\L	8g/L	2G\	.	.	2G/	-rze-	.	2G^>/	.	.
8D\	8d/	.	.	.	.	.	.	.	.	.
8BB-\	8B-/	.	.	.	.	.	.	.	.	.
8G\J	8g/J	.	.	.	.	.	.	.	.	.
8A\L	8a/L	2A\	.	.	2A/	-my	.	2A^>/	.	.
8F#X\	8f#X/	.	.	.	.	.	.	.	.	.
8D\	8d/	.	.	.	.	.	.	.	.	.
8A\J	8a/J	.	.	.	.	.	.	.	.	.
=4	=4	=4	=4	=4	=4	=4	=4	=4	=4	=4
8B-\L	8b-/L	2B-\	.	.	2B-^\	w Bo-	.	2B-^\	.	.
8G\	8g/	.	.	.	.	.	.	.	.	.
8D\	8d/	.	.	.	.	.	.	.	.	.
8B-\J	8b-/J	.	.	.	.	.	.	.	.	.
8G\L	8g/L	4G\	.	.	4G/	-ga	.	4G/	.	.
8D\	8d/	.	.	.	.	.	.	.	.	.
8F#X\	8a/	4F#X\	.	.	4A/	je-	.	4A/	.	.
8D\J	8d/J	.	.	.	.	.	.	.	.	.
!!LO:LB:g=original
=5	=5	=5	=5	=5	=5	=5	=5	=5	=5	=5
2G 2GG/	8b-/L	2G\	.	.	2G/	-dne-	.	2B-^\	.	.
.	8g/	.	.	.	.	.	.	.	.	.
.	8d/	.	.	.	.	.	.	.	.	.
.	8b-/J	.	.	.	.	.	.	.	.	.
2E- 2EE-/	8cc/L	4.E-\	.	.	4.G/	-go	.	4.c\	.	.
.	8g/	.	.	.	.	.	.	.	.	.
.	8e-/	.	.	.	.	.	.	.	.	.
.	8ccJ 8g/	8E-\	.	.	8G/	na	.	8c\	.	.
=6	=6	=6	=6	=6	=6	=6	=6	=6	=6	=6
*^	*^	*	*	*	*	*	*	*	*	*
[2D/	8DD\L	2dd/	2.f#X\	2D\	.	.	2F#X/	wie-	.	2d^\	.	.
.	8FF#X\	.	.	.	.	.	.	.	.	.	.	.
.	8AA\	.	.	.	.	.	.	.	.	.	.	.
.	8D\J	.	.	.	.	.	.	.	.	.	.	.
4D/]	4DD\	4a/	.	4D\	.	.	4F#/	-ki	.	4A\	.	.
4D/	4ryy	4dd/	4f#\	4D\	.	.	4F#/	co	.	4d\	.	.
*v	*v	*	*	*	*	*	*	*	*	*	*	*
*	*v	*v	*	*	*	*	*	*	*	*	*
=7	=7	=7	=7	=7	=7	=7	=7	=7	=7	=7
4C\	8ee-/L	2C/	.	.	2F#X/	ka-	.	2e-^\	.	.
.	8a/	.	.	.	.	.	.	.	.	.
4c\	8f#X/	.	.	.	.	.	.	.	.	.
.	8ee-/J	.	.	.	.	.	.	.	.	.
4BB-/	8dd/L	2BB-/	.	.	2G/	-rze	.	2d^\	.	.
.	8b-/	.	.	.	.	.	.	.	.	.
4B-\	8d/	.	.	.	.	.	.	.	.	.
.	8dd/J	.	.	.	.	.	.	.	.	.
=8	=8	=8	=8	=8	=8	=8	=8	=8	=8	=8
4AA/	8ddL 8f#X/	2AA/	.	.	2F#X/	zbro-	.	(4d\	.	.
.	8d/	.	.	.	.	.	.	.	.	.
4A\	8cc 8f#/	.	.	.	.	.	.	4c\)	.	.
.	8d/J	.	.	.	.	.	.	.	.	.
4G\	8b-L 8g/	4GG/	.	.	4G/	-dnie	.	4B-\	.	.
.	8d/	.	.	.	.	.	.	.	.	.
4E-\	8cc/	4E-\	.	.	4G/	a	.	4c\	.	.
.	8g/J	.	.	.	.	.	.	.	.	.
=9	=9	=9	=9	=9	=9	=9	=9	=9	=9	=9
!	!	!	!	!LO:DY:a	!	!	!LO:DY:a	!	!	!LO:DY:a
4F\	8ddL 8b-\	(4F\	.	p	2B-\	cno-	p	(4d\	.	p
.	8f\	.	.	.	.	.	.	.	.	.
4D\	8ff 8b-\	4D\)	.	.	.	.	.	4f\)	.	.
.	8f\J	.	.	.	.	.	.	.	.	.
8C\L	4.ee- 4.g/	4.C\	.	.	4.G/	-ty	.	4.e-\	.	.
8c\	.	.	.	.	.	.	.	.	.	.
8C\	.	.	.	.	.	.	.	.	.	.
8F\J	8cc 8a/	8F\	.	.	8A/	na-	.	8c\	.	.
!!LO:PB:g=original
=10	=10	=10	=10	=10	=10	=10	=10	=10	=10	=10
8BB-\L	2.dd 2.b- 2.f/	2BB-/	.	.	2B-\	-gra-	.	2d\	.	.
8D\	.	.	.	.	.	.	.	.	.	.
8F\	.	.	.	.	.	.	.	.	.	.
8B-\J	.	.	.	.	.	.	.	.	.	.
4BB-/	.	4BB-/	.	.	4B-\	-dza	.	4d\	.	.
4B-\	4b-\	4BB-/	.	.	4B-\	świat	.	4B-\	.	.
=11	=11	=11	=11	=11	=11	=11	=11	=11	=11	=11
*	*^	*	*	*	*	*	*	*	*	*
2E-\	2gg\	2.b-\	2E-\	.	.	2B-\	ca-	.	2g^\	.	f
4D\	4ff/	.	4D\	.	.	4B-\	-ły	.	4f\	.	.
4B- 4BB-\	4dd/	4b- 4f\	(4B-\	.	.	[4B-\	z Je-	.	(4d\	.	.
*	*v	*v	*	*	*	*	*	*	*	*	*
=12	=12	=12	=12	=12	=12	=12	=12	=12	=12	=12
2G 2GG/	2ee- 2b- 2e-/	2G\)	.	.	2B-\]	.	.	2e-\)	.	.
4F 4FF/	4dd 4b- 4f/	4F\	.	.	4B-\	-go	.	4d\	.	.
4F 4FF/	4dd 4b- 4f/	4F\	.	.	4B-\	i-	.	4d\	.	.
=13	=13	=13	=13	=13	=13	=13	=13	=13	=13	=13
*	*^	*	*	*	*	*	*	*	*	*
1E- 1EE-	4.cc/	1g	2E-\	.	.	2G/	-stnie-	.	(4.c\	.	.
.	16dd/LL	.	.	.	.	.	.	.	16d\LL	.	.
.	16cc/JJ	.	.	.	.	.	.	.	16c\JJ)	.	.
.	4b-/	.	4E-\	.	.	4G/	-ie	.	4B-\	.	.
.	4cc/	.	4E-\	.	.	4A/	O-	.	4c\	.	.
!!LO:LB:g=original
=14	=14	=14	=14	=14	=14	=14	=14	=14	=14	=14	=14
2.D 2.DD/	2.dd 2.a/	4g\	2D\	.	.	(4G/	-pie-	.	2d\	.	.
.	.	8f#X\L	.	.	.	8F#X/L	.	.	.	.	.
.	.	8en\J	.	.	.	8En/J)	.	.	.	.	.
.	.	4f#\	4D\	.	.	4F#/	-ki	.	4d\	.	.
4D\	4dd 4a/	4f#\	4D\	.	.	4F#/	w Mi-	.	4d\	.	.
*	*v	*v	*	*	*	*	*	*	*	*	*
=15	=15	=15	=15	=15	=15	=15	=15	=15	=15	=15
4C\	8ee-/L	2C/	.	.	2F#X/	-ło-	.	2e-\	.	.
.	8a/	.	.	.	.	.	.	.	.	.
4c\	8f#X/	.	.	.	.	.	.	.	.	.
.	8ee-/J	.	.	.	.	.	.	.	.	.
4BB-/	8dd/L	2BB-/	.	.	2G/	-ści	.	2d\	.	.
.	8g/	.	.	.	.	.	.	.	.	.
4B-\	8d/	.	.	.	.	.	.	.	.	.
.	8dd/J	.	.	.	.	.	.	.	.	.
=16	=16	=16	=16	=16	=16	=16	=16	=16	=16	=16
4AA/	8ddL 8f/	2AA/	.	.	2F#X/	Je-	.	(4d\	.	.
.	8d/	.	.	.	.	.	.	.	.	.
4A\	8cc 8f/	.	.	.	.	.	.	4c\)	.	.
.	8d/J	.	.	.	.	.	.	.	.	.
4GG/	8b-L 8g/	4GG/	.	.	4G/	-go	.	4B-\	.	.
.	8d/	.	.	.	.	.	.	.	.	.
4C/	8a 8g/	4C/	.	.	4G/	i	.	4A\	.	.
.	8e-/J	.	.	.	.	.	.	.	.	.
=17	=17	=17	=17	=17	=17	=17	=17	=17	=17	=17
2D\	8b-L 8g/	2D\	.	.	2G/	mą-	.	2B-\	.	.
.	8d/	.	.	.	.	.	.	.	.	.
.	8b- 8g/	.	.	.	.	.	.	.	.	.
.	8d/J	.	.	.	.	.	.	.	.	.
2D 2DD/	8aL 8g/	4.D\	.	.	4.G/	-drość	.	4.A\	.	.
.	8d/	.	.	.	.	.	.	.	.	.
.	8a 8f#X/	.	.	.	.	.	.	.	.	.
.	8d/J	8D\	.	.	8F#X/	i	.	8A\	.	.
=18	=18	=18	=18	=18	=18	=18	=18	=18	=18	=18
8GG/L	8g\L	2G\	.	.	2G/	wła-	.	2G/	.	.
8G/	8b-\	.	.	.	.	.	.	.	.	.
8D/	8dd\	.	.	.	.	.	.	.	.	.
8BB-/J	8gg\J	.	.	.	.	.	.	.	.	.
4GG/	4g/	4G\	.	.	4G/	-dza	.	4G/	.	.
!	!	!	!	!	!	!	!	!LO:TX:i:a:t=Solo	!	!
8Fn\L	4a 4fn/	8Fn\L	.	.	8A/L	że	.	4A/	.	.
8E-X\J	.	8E-\J	.	.	8Fn/J	.	.	.	.	.
!!LO:LB:g=original
=19	=19	=19	=19	=19	=19	=19	=19	=19	=19	=19
*	*^	*	*	*	*	*	*	*	*	*
!	!	!	!	!	!	!	!	!	!LO:TX:i:a:t=dolce	!	!
2D/	2b-/	1f	2D\	.	.	2F/	nie-	.	2B-\	.	.
2BB-/	2dd 2b-/	.	2BB-/	.	.	2B-\	-śmier-	.	2c\	.	.
=20	=20	=20	=20	=20	=20	=20	=20	=20	=20	=20	=20
*	*	*^	*	*	*	*	*	*	*	*	*
2.F 2.FF/	(2cc/	1f	4b-/	2F\	.	.	(4B-\	-tel-	.	2c\	.	.
.	.	.	8a/L	.	.	.	8A\L	.	.	.	.	.
.	.	.	8g/J	.	.	.	8G\J)	.	.	.	.	.
.	4cc 4a/)	.	2ryy	4F\	.	.	4A\	-ność	.	4c\	.	.
4F 4FF/	4ff 4a/	.	.	4F\	.	.	4A\	u	.	4f\	.	.
*	*	*v	*v	*	*	*	*	*	*	*	*	*
=21	=21	=21	=21	=21	=21	=21	=21	=21	=21	=21	=21
2BB-/	2dd 2b-/	1f	2BB-/	.	.	2B-\	Bo-	.	2d\	.	.
4F\	4cc 4a/	.	4F\	.	.	4A\	-ga	.	4c\	.	.
4D\	4b-/	.	4D\	.	.	4B-\	nas	.	4B-\	.	.
=22	=22	=22	=22	=22	=22	=22	=22	=22	=22	=22	=22
[2.F\	2.cc 2.a/	[2.f\	2F\	.	.	2A\	cze-	.	2c\	.	.
.	.	.	4F\	.	.	4A\	-ka	.	4c\	.	.
8F\L]	8ddL 8b-/	4f\]	(8F\L	.	.	(8B-\L	dla	.	(8d\L	.	.
8E-\J	8ee-J 8cc/	.	8E-\J)	.	.	8c\J)	.	.	8e-\J)	.	.
=23	=23	=23	=23	=23	=23	=23	=23	=23	=23	=23	=23
2D\	[2ff 2b- 2f/	2ryy	2D\	.	.	2B-\	któ-	.	2f^\	.	.
2C/	4.ff/]	4.ff 4.g\	4.C/	.	.	4.G/	-rej	.	4.f\	.	.
.	8ee-/	8a\	8C/	.	.	8A/	na	.	8e-\	.	.
*	*v	*v	*	*	*	*	*	*	*	*	*
!!LO:PB:g=original
=24	=24	=24	=24	=24	=24	=24	=24	=24	=24	=24
2BB-/	2dd 2b-\	2BB-/	.	.	2B-\	zie-	.	2d\	.	.
2G 2GG/	2dd 2b-\	2G\	.	.	2B-\	-mi	.	2d\	.	.
=25	=25	=25	=25	=25	=25	=25	=25	=25	=25	=25
*	*^	*	*	*	*	*	*	*	*	*
1E- 1EE-	4.cc/	1g	2E-\	.	.	2G/	czy-	.	(4.c\	.	.
.	16dd/LL	.	.	.	.	.	.	.	16d\LL	.	.
.	16cc/JJ	.	.	.	.	.	.	.	16c\JJ)	.	.
.	4b-/	.	4E-\	.	.	4G/	-niem	.	4B-\	.	.
.	4cc/	.	4E-\	.	.	4G/	O-	.	4c\	.	.
=26	=26	=26	=26	=26	=26	=26	=26	=26	=26	=26	=26
*^	*	*	*	*	*	*	*	*	*	*	*
!	!	!LO:N:vis=2.	!	!	!	!	!	!	!	!	!	!LO:DY:a
2D 2DD/	2.ryy	[2dd [2a/	4g\	2D\	.	.	(4G/	-fia-	.	2d\	.	f
.	.	.	8f#X\L	.	.	.	8F#X/L	.	.	.	.	.
.	.	.	8en\J	.	.	.	8En/J)	.	.	.	.	.
4D 4DD/	.	4dd] 4a/]	4f#\	4D\	.	.	4F#/	-ry	.	4d\	.	.
4d\	4rGG	4ryy	4ryy	4r	.	.	4d\	ze	.	4r	.	.
*	*	*v	*v	*	*	*	*	*	*	*	*	*
=27	=27	=27	=27	=27	=27	=27	=27	=27	=27	=27	=27
2c\	1rAA	2r	1r	.	.	2c^\	Sy-	.	2r	.	.
2B-\	.	4r	.	.	.	2B-^\	-na	.	4r	.	.
.	.	4dd 4d/	.	.	.	.	.	.	(4d\	swe	.
!!LO:LB:g=original
=28	=28	=28	=28	=28	=28	=28	=28	=28	=28	=28	=28
2A\	2rGG	2cc 2c/	2r	.	.	2A\	swe-	.	2c^\)	.	.
4G\	4rGG	4b- 4B-/	4r	.	.	4G\	-go	.	4B-\	go	.
4G/	4GG\	4b- 4g/	4GG/	chciał	.	4G\	chciał	.	4B-\	chciał	.
*v	*v	*	*	*	*	*	*	*	*	*	*
=29	=29	=29	=29	=29	=29	=29	=29	=29	=29	=29
*	*^	*	*	*	*	*	*	*	*	*
2E-\	2b- 2g/	2ryy	2E-\	.	.	2G/	wcie-	.	2B-\	.	.
4C/	4a/	4e-X\	4C/	.	.	4E-X/	-lić	.	4A\	.	.
4C#X/	4g/	4en\	4C#X/	.	.	4En/	w czło-	.	4G/	.	.
*	*v	*v	*	*	*	*	*	*	*	*	*
=30	=30	=30	=30	=30	=30	=30	=30	=30	=30	=30
2D\	2f#X 2d/	2D\	.	.	(4.D/	-wie-	.	(4.F#X/	.	.
.	.	.	.	.	8F#X/)	.	.	8A/)	.	.
4D 4DD/	4a 4f#/	4D\	.	.	4F#/	-ka	.	4A\	.	.
4D 4DD/	4dd 4f#/	4D\	.	.	4F#/	Co	.	4d\	.	.
=31	=31	=31	=31	=31	=31	=31	=31	=31	=31	=31
*	*^	*	*	*	*	*	*	*	*	*
1E- 1EE-	2cc/	2g\	2E-\	.	.	2G/	nas	.	2c\	.	.
.	2g/	2g\	2E-\	.	.	2G/	na	.	2G/	.	.
*	*v	*v	*	*	*	*	*	*	*	*	*
!!LO:LB:g=original
=32	=32	=32	=32	=32	=32	=32	=32	=32	=32	=32
!	!	!	!	!	!	!	!	!LO:TX:i:a:t=dolce	!	!
2F 2FF/	8fn/L	2F\	.	.	2Fn/	.	.	(<4Fn/	u-	.
.	8d/	.	.	.	.	.	.	.	.	.
.	8b-/	.	.	.	.	.	.	4B-\)	.	.
.	8f/J	.	.	.	.	.	.	.	.	.
!	!	!	!	!	!	!	!	!	!	!LO:DY:a
2d 2B- 2F\	8.ddL 8.b-\	4.F\	.	.	4.B-\	.	.	4.d\	-czył	<
.	16f\K	.	.	.	.	.	.	.	.	.
.	8dd 8b-\	.	.	.	.	.	.	.	.	.
.	8ffJ 8dd\	8F\	.	.	8d\	.	.	8f\	mi-	[[
=33	=33	=33	=33	=33	=33	=33	=33	=33	=33	=33
!	!	!	!	!	!	!	!	!	!	!LO:DY:a
!	!	!	!	!	!	!	!	!	!	!LO:DY:a
1e- 1c 1F	4gg 4ee-\	2F\	.	f	4e-\	.	f	4g\	-ło-	f >
.	4ff 4dd\	.	.	.	4d\	.	.	4f\	.	.
.	4.ee- 4.cc\	4.F\	.	.	4.c\	.	.	4.e-\	-ści	.
.	8cc 8a\	8F\	.	.	8A\	.	.	8c\	i	]
=34	=34	=34	=34	=34	=34	=34	=34	=34	=34	=34
2.d 2.B-\	2.b-\	2B-\	.	.	2B-\	.	.	2B-\	wia-	.
.	.	4BB-/	.	.	4B-\	.	.	4B-\	-ry	.
=||	=||	=||	=||	=||	=||	=||	=||	=||	=||	=||
!	!LO:TX:i:b:t=V&colon;S&colon;	!	!	!	!	!	!LO:DY:a	!LO:TX:i:a:t=Tutti	!	!LO:DY:a
4D\	4d/	4D\	.	f	4D/	.	f	4D/	Ten	f
!!LO:PB:g=original
=35	=35	=35	=35	=35	=35	=35	=35	=35	=35	=35
8G\L	8g/L	2G\	.	.	2G/	śmier-	.	2G/	.	.
8D\	8d/	.	.	.	.	.	.	.	.	.
8BB-\	8B-/	.	.	.	.	.	.	.	.	.
8G\J	8g/J	.	.	.	.	.	.	.	.	.
8A\L	8a/L	2A\	.	.	2A/	-cią	.	2A/	.	.
8F#X\	8f#X/	.	.	.	.	.	.	.	.	.
8D\	8d/	.	.	.	.	.	.	.	.	.
8A\J	8a/J	.	.	.	.	.	.	.	.	.
=36	=36	=36	=36	=36	=36	=36	=36	=36	=36	=36
8B-\L	8b-/L	2B-\	.	.	2B-\	swo-	.	2B-\	.	.
8G\	8g/	.	.	.	.	.	.	.	.	.
8D\	8d/	.	.	.	.	.	.	.	.	.
8B-\J	8b-/J	.	.	.	.	.	.	.	.	.
8G\L	8g/L	4G\	.	.	4G/	-ją	.	4G/	.	.
8D\	8d/	.	.	.	.	.	.	.	.	.
8F#X\	8a/	4F#X\	.	.	4A/	ród	.	4A/	.	.
8D\J	8d/J	.	.	.	.	.	.	.	.	.
=37	=37	=37	=37	=37	=37	=37	=37	=37	=37	=37
2G 2GG/	8b-/L	2G\	.	.	2G/	ludź-	.	2B-\	.	.
.	8g/	.	.	.	.	.	.	.	.	.
.	8d/	.	.	.	.	.	.	.	.	.
.	8b-/J	.	.	.	.	.	.	.	.	.
2E- 2EE-/	8cc/L	4.E-\	.	.	4.G/	-ki	.	4.c\	.	.
.	8g/	.	.	.	.	.	.	.	.	.
.	8e-/	.	.	.	.	.	.	.	.	.
.	8ccJ 8g/	8E-\	.	.	8G/	wy-	.	8c\	.	.
=38	=38	=38	=38	=38	=38	=38	=38	=38	=38	=38
*	*^	*	*	*	*	*	*	*	*	*
2.D 2.DD/	2dd/	2.f#X\	2D\	.	.	2F#X/	-ba-	.	2d\	.	.
.	4a/	.	4D\	.	.	4F#/	-wił	.	4A\	.	.
4D\	4dd/	4f#\	4D\	.	.	4F#/	I	.	4d\	.	.
*	*v	*v	*	*	*	*	*	*	*	*	*
!!LO:LB:g=original
=39	=39	=39	=39	=39	=39	=39	=39	=39	=39	=39
4C\	8ee-/L	2C/	.	.	2F#X/	krwią	.	2e-^\	.	.
.	8a/	.	.	.	.	.	.	.	.	.
4c\	8f#X/	.	.	.	.	.	.	.	.	.
.	8ee-/J	.	.	.	.	.	.	.	.	.
4BB-/	8dd/L	2BB-/	.	.	2G/	do	.	2d^\	.	.
.	8g/	.	.	.	.	.	.	.	.	.
4B-\	8d/	.	.	.	.	.	.	.	.	.
.	8dd/J	.	.	.	.	.	.	.	.	.
=40	=40	=40	=40	=40	=40	=40	=40	=40	=40	=40
4AA/	8ddL 8f#X/	2AA/	.	.	2F#X/	Nie-	.	(4d\	.	.
.	8d/	.	.	.	.	.	.	.	.	.
4A\	8cc 8f#/	.	.	.	.	.	.	4c\)	.	.
.	8d/J	.	.	.	.	.	.	.	.	.
4G\	8b-L 8g/	4GG/	.	.	4G/	-ba	.	4B-\	.	.
.	8d/	.	.	.	.	.	.	.	.	.
4E-\	8cc/	4E-\	.	.	4G/	O-	.	4c\	.	.
.	8g/J	.	.	.	.	.	.	.	.	.
=41	=41	=41	=41	=41	=41	=41	=41	=41	=41	=41
4F\	8ddL 8b-\	(4F\	.	.	2B-\	-zna-	.	(4d\	.	.
.	8f\	.	.	.	.	.	.	.	.	.
4D\	8ff 8b-\	4D\)	.	.	.	.	.	4f\)	.	.
.	8f\J	.	.	.	.	.	.	.	.	.
8C\L	4.ee- 4.g/	4.C\	.	.	4.G/	-czył	.	4.e-\	.	.
8c\	.	.	.	.	.	.	.	.	.	.
8C\	.	.	.	.	.	.	.	.	.	.
8F\J	8cc 8a/	8F\	.	.	8A\	nam	.	8c\	.	.
=42	=42	=42	=42	=42	=42	=42	=42	=42	=42	=42
8BB-\L	2.dd 2.b- 2.f/	2BB-/	.	.	2B-\	śla-	.	2d\	.	.
8D\	.	.	.	.	.	.	.	.	.	.
8F\	.	.	.	.	.	.	.	.	.	.
8B-\J	.	.	.	.	.	.	.	.	.	.
4BB-/	.	4BB-/	.	.	4B-\	-dy	.	4d\	.	.
!	!	!	!	!	!	!	!	!	!	!LO:DY:a
4BB-/	4b-/	4BB-/	.	.	4B-\	A	.	4B-\	.	f
!!LO:LB:g=original
=43	=43	=43	=43	=43	=43	=43	=43	=43	=43	=43
*	*^	*	*	*	*	*	*	*	*	*
2E-\	2gg 2g/	1b-	2E-\	.	.	2B-\	po-	.	2g^\	.	.
2D\	2ff 2f/	.	2D\	.	.	2B-\	-bo-	.	2f^\	.	.
*	*v	*v	*	*	*	*	*	*	*	*	*
=44	=44	=44	=44	=44	=44	=44	=44	=44	=44	=44
2G 2GG/	2ee- 2b- 2e-/	2G\	.	.	2B-\	-żne-	.	2e-\	.	.
4F 4FF/	4dd 4b- 4f/	4F\	.	.	4B-\	-mu	.	4d\	.	.
4F 4FF/	4dd 4b- 4f/	4F\	.	.	4B-\	na	.	4d\	.	.
=45	=45	=45	=45	=45	=45	=45	=45	=45	=45	=45
*	*^	*	*	*	*	*	*	*	*	*
1C 1CC	4.cc/	1g	2E-\	.	.	2G/	wie-	.	(4.c\	.	.
.	16dd/LL	.	.	.	.	.	.	.	16d\LL	.	.
.	16cc/JJ	.	.	.	.	.	.	.	16c\JJ)	.	.
.	4b-/	.	4E-\	.	.	4G/	-ki	.	4B-\	.	.
.	4cc/	.	4E-\	.	.	4G/	zo-	.	4c\	.	.
=46	=46	=46	=46	=46	=46	=46	=46	=46	=46	=46	=46
*^	*	*	*	*	*	*	*	*	*	*	*
2.D/	2.DD/	2.dd 2.a/	4g\	2D\	.	.	(4G/	-sta-	.	2d\	.	.
.	.	.	8f#X\L	.	.	.	8F#X/L	.	.	.	.	.
.	.	.	8en\J	.	.	.	8En/J)	.	.	.	.	.
.	.	.	4f#\	4D\	.	.	4F#/	-wił	.	4d\	.	.
4D/	4D\	4dd 4a/	4f#\	4D\	.	.	4F#/	Na-	.	4d\	.	.
*v	*v	*	*	*	*	*	*	*	*	*	*	*
*	*v	*v	*	*	*	*	*	*	*	*	*
!!LO:PB:g=original
=47	=47	=47	=47	=47	=47	=47	=47	=47	=47	=47
4C/	8ee-/L	2C/	.	.	2F#X/	-u-	.	2e-\	.	.
.	8a/	.	.	.	.	.	.	.	.	.
4c\	8f#X/	.	.	.	.	.	.	.	.	.
.	8ee-/J	.	.	.	.	.	.	.	.	.
4BB-/	8dd/L	2BB-/	.	.	2G/	-ki	.	2d\	.	.
.	8g/	.	.	.	.	.	.	.	.	.
4B-\	8d/	.	.	.	.	.	.	.	.	.
.	8dd/J	.	.	.	.	.	.	.	.	.
=48	=48	=48	=48	=48	=48	=48	=48	=48	=48	=48
4AA/	8ddL 8f#X/	2AA/	.	.	2F#X/	świę-	.	(4d\	.	.
.	8d/	.	.	.	.	.	.	.	.	.
4A\	8cc 8f#/	.	.	.	.	.	.	4c\)	.	.
.	8d/J	.	.	.	.	.	.	.	.	.
4GG/	8b-L 8g/	4GG/	.	.	4G/	-te	.	4B-\	.	.
.	8d/	.	.	.	.	.	.	.	.	.
4C/	8a 8g/	4C/	.	.	4G/	i	.	4A\	.	.
.	8d/J	.	.	.	.	.	.	.	.	.
=49	=49	=49	=49	=49	=49	=49	=49	=49	=49	=49
2D\	8b-L 8g/	2D\	.	.	2G/	świę-	.	2B-\	.	.
.	8d/	.	.	.	.	.	.	.	.	.
.	8b- 8g/	.	.	.	.	.	.	.	.	.
.	8d/J	.	.	.	.	.	.	.	.	.
2D 2DD/	8aL 8g/	4.D\	.	.	4.G/	-te	.	4.A\	.	.
.	8d/	.	.	.	.	.	.	.	.	.
.	8a 8f#X/	.	.	.	.	.	.	.	.	.
.	8d/J	8D\	.	.	8F#X/	przy-	.	8A\	.	.
=50	=50	=50	=50	=50	=50	=50	=50	=50	=50	=50
8GG/L	8g\L	2G\	.	.	2G/	-kła-	.	2G/	.	.
8G/	8b-\	.	.	.	.	.	.	.	.	.
8D/	8dd\	.	.	.	.	.	.	.	.	.
8BB-/J	8gg\J	.	.	.	.	.	.	.	.	.
8GG/L	8g/L	4GG/	.	.	4G/	-dy	.	4G/	.	.
8BB-/J	8d/	.	.	.	.	.	.	.	.	.
4C/	8a 8g/	4r	.	.	4r	.	.	4r	.	.
.	8e-/J	.	.	.	.	.	.	.	.	.
!!LO:LB:g=original
=51	=51	=51	=51	=51	=51	=51	=51	=51	=51	=51
2D\	8b-L 8g/	1r	.	.	1r	.	.	1r	.	.
.	8d/	.	.	.	.	.	.	.	.	.
.	8b- 8g/	.	.	.	.	.	.	.	.	.
.	8d/J	.	.	.	.	.	.	.	.	.
2c 2A 2D\	8aL 8g/	.	.	.	.	.	.	.	.	.
.	8d/	.	.	.	.	.	.	.	.	.
.	8a 8f#X/	.	.	.	.	.	.	.	.	.
.	8d/J	.	.	.	.	.	.	.	.	.
=52	=52	=52	=52	=52	=52	=52	=52	=52	=52	=52
2B- 2G\	2g 2d/	1r	.	.	2r	.	.	1r	.	.
4G\	4g/	.	.	.	2G/	A-	.	.	.	.
4G\	4g/	.	.	.	.	.	.	.	.	.
=53	=53	=53	=53	=53	=53	=53	=53	=53	=53	=53
*	*^	*	*	*	*	*	*	*	*	*
2E-\	2cc/	1g	2E-\	A-	.	1G	.	.	(2c\	A-	.
2C\	2ee- 2cc/	.	2C/	.	.	.	.	.	2e-\)	.	.
*	*v	*v	*	*	*	*	*	*	*	*	*
=54	=54	=54	=54	=54	=54	=54	=54	=54	=54	=54
1G 1GG;	1dd 1bn 1g;	1G;	-men	.	1Bn;	-men	.	1d;	-men!	.
==	==	==	==	==	==	==	==	==	==	==
*-	*-	*-	*-	*-	*-	*-	*-	*-	*-	*-
!!!system-decoration: g1{(g2)}
!!!ENC: Andrzej Gręziak
!!!END: 2021-08-13
!!!ENC: Kamil Watkowski
!!!END: 2021-09-09
!!!RDF**kern: > = above
!!!RDF**kern: < = below
